dist/img/chat.svg

<svg width="44" height="33" viewBox="0 0 44 33" fill="none" xmlns="http://www.w3.org/2000/svg">
<path d="M39.8732 8.25H23.3769C22.8349 8.25 22.2983 8.35674 21.7976 8.56413C21.2969 8.77153 20.842 9.07551 20.4587 9.45872C20.0755 9.84193 19.7715 10.2969 19.5641 10.7976C19.3567 11.2983 19.25 11.8349 19.25 12.3768V23.3732C19.25 23.9151 19.3567 24.4518 19.5641 24.9525C19.7715 25.4532 20.0755 25.9081 20.4587 26.2913C20.842 26.6745 21.2969 26.9785 21.7976 27.1859C22.2983 27.3933 22.8349 27.5 23.3769 27.5H28.875L34.375 33V27.5H39.8732C40.9677 27.5 42.0173 27.0652 42.7913 26.2913C43.5652 25.5174 44 24.4677 44 23.3732V12.3768C44 11.2823 43.5652 10.2327 42.7913 9.45875C42.0174 8.68481 40.9677 8.25002 39.8732 8.25Z" fill="#F1EDF3"/>
<path d="M24.75 5.49987V4.12684C24.75 3.03233 24.3152 1.98265 23.5413 1.20872C22.7673 0.434786 21.7176 -2.6048e-06 20.6231 0H4.12682C3.03232 7.81437e-06 1.98265 0.434802 1.20872 1.20873C0.434792 1.98267 2.60476e-06 3.03234 0 4.12685V15.1232C1.28977e-06 15.6651 0.106746 16.2018 0.314139 16.7025C0.521532 17.2031 0.825512 17.6581 1.20872 18.0413C1.59193 18.4245 2.04687 18.7285 2.54756 18.9359C3.04825 19.1433 3.58488 19.25 4.12682 19.25H9.625V24.75L15.125 19.25H16.5002V12.3769C16.5022 10.5537 17.2274 8.80574 18.5165 7.51651C19.8057 6.22728 21.5536 5.50206 23.3768 5.49992L24.75 5.49987Z" fill="#F1EDF3"/>
</svg>

<svg width="44" height="33" fill="none" xmlns="http://www.w3.org/2000/svg"><path d="M39.873 8.25H23.377a4.127 4.127 0 0 0-4.127 4.127v10.996a4.127 4.127 0 0 0 4.127 4.127h5.498l5.5 5.5v-5.5h5.498A4.127 4.127 0 0 0 44 23.373V12.377a4.127 4.127 0 0 0-4.127-4.127Z" fill="#F1EDF3"/><path d="M24.75 5.5V4.127A4.127 4.127 0 0 0 20.623 0H4.127A4.127 4.127 0 0 0 0 4.127v10.996a4.127 4.127 0 0 0 4.127 4.127h5.498v5.5l5.5-5.5H16.5v-6.873A6.885 6.885 0 0 1 23.377 5.5h1.373Z" fill="#F1EDF3"/></svg>
